images/1622560.svg

<?xml version="1.0" encoding="UTF-8"?>
<svg xmlns="http://www.w3.org/2000/svg" xmlns:xlink="http://www.w3.org/1999/xlink" width="300pt" height="300pt" viewBox="0 0 300 300" version="1.1">
<defs>
<g>
<symbol overflow="visible" id="glyph0-0">
<path style="stroke:none;" d="M 0.59375 2.125 L 0.59375 -8.46875 L 6.59375 -8.46875 L 6.59375 2.125 Z M 1.265625 1.453125 L 5.9375 1.453125 L 5.9375 -7.78125 L 1.265625 -7.78125 Z M 1.265625 1.453125 "/>
</symbol>
<symbol overflow="visible" id="glyph0-1">
<path style="stroke:none;" d="M 1.171875 -8.75 L 2.359375 -8.75 L 2.359375 -5.15625 L 6.65625 -5.15625 L 6.65625 -8.75 L 7.84375 -8.75 L 7.84375 0 L 6.65625 0 L 6.65625 -4.171875 L 2.359375 -4.171875 L 2.359375 0 L 1.171875 0 Z M 1.171875 -8.75 "/>
</symbol>
<symbol overflow="visible" id="glyph0-2">
<path style="stroke:none;" d="M 1.171875 -8.75 L 2.765625 -8.75 L 6.65625 -1.4375 L 6.65625 -8.75 L 7.796875 -8.75 L 7.796875 0 L 6.203125 0 L 2.328125 -7.3125 L 2.328125 0 L 1.171875 0 Z M 1.171875 -8.75 "/>
</symbol>
<symbol overflow="visible" id="glyph1-0">
<path style="stroke:none;" d="M 0.5 1.765625 L 0.5 -7.046875 L 5.5 -7.046875 L 5.5 1.765625 Z M 1.0625 1.21875 L 4.9375 1.21875 L 4.9375 -6.484375 L 1.0625 -6.484375 Z M 1.0625 1.21875 "/>
</symbol>
<symbol overflow="visible" id="glyph1-1">
<path style="stroke:none;" d="M 1.921875 -0.828125 L 5.359375 -0.828125 L 5.359375 0 L 0.734375 0 L 0.734375 -0.828125 C 1.109375 -1.210938 1.617188 -1.734375 2.265625 -2.390625 C 2.910156 -3.046875 3.316406 -3.46875 3.484375 -3.65625 C 3.796875 -4.007812 4.015625 -4.304688 4.140625 -4.546875 C 4.265625 -4.796875 4.328125 -5.039062 4.328125 -5.28125 C 4.328125 -5.664062 4.191406 -5.976562 3.921875 -6.21875 C 3.648438 -6.46875 3.296875 -6.59375 2.859375 -6.59375 C 2.546875 -6.59375 2.21875 -6.535156 1.875 -6.421875 C 1.539062 -6.316406 1.175781 -6.15625 0.78125 -5.9375 L 0.78125 -6.9375 C 1.175781 -7.09375 1.546875 -7.210938 1.890625 -7.296875 C 2.234375 -7.378906 2.550781 -7.421875 2.84375 -7.421875 C 3.59375 -7.421875 4.191406 -7.234375 4.640625 -6.859375 C 5.097656 -6.484375 5.328125 -5.976562 5.328125 -5.34375 C 5.328125 -5.039062 5.269531 -4.753906 5.15625 -4.484375 C 5.039062 -4.222656 4.835938 -3.910156 4.546875 -3.546875 C 4.460938 -3.453125 4.203125 -3.175781 3.765625 -2.71875 C 3.328125 -2.269531 2.710938 -1.640625 1.921875 -0.828125 Z M 1.921875 -0.828125 "/>
</symbol>
</g>
</defs>
<g id="surface48285">
<rect x="0" y="0" width="300" height="300" style="fill:rgb(100%,100%,100%);fill-opacity:1;stroke:none;"/>
<path style="fill:none;stroke-width:1.2;stroke-linecap:butt;stroke-linejoin:miter;stroke:rgb(0%,0%,0%);stroke-opacity:1;stroke-miterlimit:10;" d="M 258.957031 178.507812 L 247.273438 151.582031 "/>
<path style="fill:none;stroke-width:1.2;stroke-linecap:butt;stroke-linejoin:miter;stroke:rgb(0%,0%,0%);stroke-opacity:1;stroke-miterlimit:10;" d="M 247.273438 151.582031 L 264.75 128 "/>
<path style="fill:none;stroke-width:1.2;stroke-linecap:butt;stroke-linejoin:miter;stroke:rgb(0%,0%,0%);stroke-opacity:1;stroke-miterlimit:10;" d="M 247.273438 151.582031 L 218.113281 148.238281 "/>
<path style="fill:none;stroke-width:1.2;stroke-linecap:butt;stroke-linejoin:miter;stroke:rgb(0%,0%,0%);stroke-opacity:1;stroke-miterlimit:10;" d="M 218.113281 148.238281 L 200.636719 171.824219 "/>
<path style="fill:none;stroke-width:1.2;stroke-linecap:butt;stroke-linejoin:miter;stroke:rgb(0%,0%,0%);stroke-opacity:1;stroke-miterlimit:10;" d="M 210.816406 146.484375 L 196.832031 165.351562 "/>
<path style="fill:none;stroke-width:1.2;stroke-linecap:butt;stroke-linejoin:miter;stroke:rgb(0%,0%,0%);stroke-opacity:1;stroke-miterlimit:10;" d="M 206.425781 121.3125 L 218.113281 148.238281 "/>
<path style="fill:none;stroke-width:1.2;stroke-linecap:butt;stroke-linejoin:miter;stroke:rgb(0%,0%,0%);stroke-opacity:1;stroke-miterlimit:10;" d="M 200.636719 171.824219 L 171.472656 168.480469 "/>
<path style="fill:none;stroke-width:1.2;stroke-linecap:butt;stroke-linejoin:miter;stroke:rgb(0%,0%,0%);stroke-opacity:1;stroke-miterlimit:10;" d="M 171.472656 168.480469 L 159.789062 141.550781 "/>
<path style="fill:none;stroke-width:1.2;stroke-linecap:butt;stroke-linejoin:miter;stroke:rgb(0%,0%,0%);stroke-opacity:1;stroke-miterlimit:10;" d="M 163.96875 168.535156 L 154.621094 146.996094 "/>
<path style="fill:none;stroke-width:1.2;stroke-linecap:butt;stroke-linejoin:miter;stroke:rgb(0%,0%,0%);stroke-opacity:1;stroke-miterlimit:10;" d="M 153.996094 192.0625 L 171.472656 168.480469 "/>
<path style="fill:none;stroke-width:1.2;stroke-linecap:butt;stroke-linejoin:miter;stroke:rgb(0%,0%,0%);stroke-opacity:1;stroke-miterlimit:10;" d="M 159.789062 141.550781 L 177.265625 117.96875 "/>
<path style="fill:none;stroke-width:1.2;stroke-linecap:butt;stroke-linejoin:miter;stroke:rgb(0%,0%,0%);stroke-opacity:1;stroke-miterlimit:10;" d="M 159.789062 141.550781 L 130.625 138.207031 "/>
<path style="fill:none;stroke-width:1.2;stroke-linecap:butt;stroke-linejoin:miter;stroke:rgb(0%,0%,0%);stroke-opacity:1;stroke-miterlimit:10;" d="M 177.265625 117.96875 L 206.425781 121.3125 "/>
<path style="fill:none;stroke-width:1.2;stroke-linecap:butt;stroke-linejoin:miter;stroke:rgb(0%,0%,0%);stroke-opacity:1;stroke-miterlimit:10;" d="M 179.394531 125.164062 L 202.722656 127.839844 "/>
<path style="fill:none;stroke-width:1.2;stroke-linecap:butt;stroke-linejoin:miter;stroke:rgb(0%,0%,0%);stroke-opacity:1;stroke-miterlimit:10;" d="M 130.625 138.207031 L 118.941406 111.28125 "/>
<path style=" stroke:none;fill-rule:nonzero;fill:rgb(0%,0%,0%);fill-opacity:1;" d="M 130.625 138.207031 L 152.265625 117.710938 L 143.941406 111.542969 Z M 130.625 138.207031 "/>
<path style="fill:none;stroke-width:1.2;stroke-linecap:butt;stroke-linejoin:miter;stroke:rgb(0%,0%,0%);stroke-opacity:1;stroke-miterlimit:10;" d="M 113.148438 161.792969 L 130.625 138.207031 "/>
<path style="fill:none;stroke-width:1.2;stroke-linecap:butt;stroke-linejoin:miter;stroke:rgb(0%,0%,0%);stroke-opacity:1;stroke-miterlimit:10;" d="M 118.941406 111.28125 L 89.777344 107.9375 "/>
<path style="fill:none;stroke-width:1.2;stroke-linecap:butt;stroke-linejoin:miter;stroke:rgb(0%,0%,0%);stroke-opacity:1;stroke-miterlimit:10;" d="M 89.777344 107.9375 L 72.300781 131.519531 "/>
<path style="fill:none;stroke-width:1.2;stroke-linecap:butt;stroke-linejoin:miter;stroke:rgb(0%,0%,0%);stroke-opacity:1;stroke-miterlimit:10;" d="M 72.300781 131.519531 L 83.988281 158.449219 "/>
<path style="fill:none;stroke-width:1.2;stroke-linecap:butt;stroke-linejoin:miter;stroke:rgb(0%,0%,0%);stroke-opacity:1;stroke-miterlimit:10;" d="M 83.988281 158.449219 L 113.148438 161.792969 "/>
<path style="fill:none;stroke-width:1;stroke-linecap:butt;stroke-linejoin:miter;stroke:rgb(0%,0%,0%);stroke-opacity:1;stroke-miterlimit:10;" d="M 83.988281 158.449219 L 83.988281 158.449219 M 83.644531 161.429688 L 84.6875 161.367188 M 83.300781 164.410156 L 85.382812 164.28125 M 82.960938 167.390625 L 86.082031 167.199219 M 82.617188 170.371094 L 86.78125 170.117188 M 82.277344 173.351562 L 87.480469 173.035156 M 81.933594 176.332031 L 88.179688 175.953125 M 81.59375 179.3125 L 88.878906 178.871094 M 81.25 182.292969 L 89.578125 181.789062 M 80.90625 185.273438 L 90.273438 184.707031 M 80.585938 188.058594 L 90.929688 187.433594 "/>
<path style="fill:none;stroke-width:1.2;stroke-linecap:butt;stroke-linejoin:miter;stroke:rgb(0%,0%,0%);stroke-opacity:1;stroke-miterlimit:10;" d="M 83.988281 158.449219 L 55.441406 165.28125 "/>
<path style="fill:none;stroke-width:1;stroke-linecap:butt;stroke-linejoin:miter;stroke:rgb(0%,0%,0%);stroke-opacity:1;stroke-miterlimit:10;" d="M 113.148438 161.792969 L 113.148438 161.792969 M 113.847656 164.710938 L 114.804688 164.292969 M 114.542969 167.628906 L 116.457031 166.796875 M 115.242188 170.542969 L 118.113281 169.300781 M 115.941406 173.460938 L 119.765625 171.800781 M 116.636719 176.378906 L 121.421875 174.304688 M 117.335938 179.296875 L 123.074219 176.808594 M 118.035156 182.214844 L 124.730469 179.308594 M 118.730469 185.132812 L 126.382812 181.8125 M 119.429688 188.050781 L 128.039062 184.316406 M 120.082031 190.78125 L 129.585938 186.65625 "/>
<path style="fill:none;stroke-width:1.2;stroke-linecap:butt;stroke-linejoin:miter;stroke:rgb(0%,0%,0%);stroke-opacity:1;stroke-miterlimit:10;" d="M 124.835938 188.71875 L 153.996094 192.0625 "/>
<path style="fill:none;stroke-width:1.2;stroke-linecap:butt;stroke-linejoin:miter;stroke:rgb(0%,0%,0%);stroke-opacity:1;stroke-miterlimit:10;" d="M 55.441406 165.28125 L 45.34375 154.625 "/>
<path style="fill:none;stroke-width:1.2;stroke-linecap:butt;stroke-linejoin:miter;stroke:rgb(0%,0%,100%);stroke-opacity:1;stroke-miterlimit:10;" d="M 45.34375 154.625 L 35.25 143.972656 "/>
<path style=" stroke:none;fill-rule:nonzero;fill:rgb(100%,100%,100%);fill-opacity:1;" d="M 10.25 134.472656 L 35.25 134.472656 L 35.25 153.472656 L 10.25 153.472656 Z M 10.25 134.472656 "/>
<g style="fill:rgb(0%,0%,100%);fill-opacity:1;">
  <use xlink:href="#glyph0-1" x="10.25" y="145.611328"/>
</g>
<g style="fill:rgb(0%,0%,100%);fill-opacity:1;">
  <use xlink:href="#glyph1-1" x="19.273438" y="150.494141"/>
</g>
<g style="fill:rgb(0%,0%,100%);fill-opacity:1;">
  <use xlink:href="#glyph0-2" x="25.635742" y="145.611328"/>
</g>
</g>
</svg>

<svg xmlns="http://www.w3.org/2000/svg" xmlns:xlink="http://www.w3.org/1999/xlink" width="300pt" height="300pt" viewBox="0 0 300 300"><defs><symbol overflow="visible"><path d="M.594 2.125V-8.47h6V2.126zm.672-.672h4.671V-7.78h-4.67zm0 0"/></symbol><symbol overflow="visible" id="a"><path d="M1.172-8.75H2.36v3.594h4.296V-8.75h1.188V0H6.656v-4.172H2.36V0H1.17zm0 0"/></symbol><symbol overflow="visible" id="c"><path d="M1.172-8.75h1.594l3.89 7.313V-8.75h1.14V0H6.204L2.328-7.313V0H1.172zm0 0"/></symbol><symbol overflow="visible"><path d="M.5 1.766v-8.813h5v8.813zm.563-.547h3.875v-7.704H1.063zm0 0"/></symbol><symbol overflow="visible" id="b"><path d="M1.922-.828H5.36V0H.733v-.828c.375-.383.883-.906 1.532-1.563.644-.657 1.05-1.08 1.218-1.266.313-.352.532-.65.657-.89.126-.25.188-.493.188-.735 0-.384-.137-.697-.406-.94-.274-.25-.625-.374-1.063-.374-.313 0-.64.06-.985.172-.336.106-.7.266-1.094.484v-1c.396-.156.767-.273 1.11-.36.344-.08.66-.124.954-.124.75 0 1.347.188 1.797.563.458.376.688.883.688 1.516 0 .305-.058.59-.172.86-.117.26-.32.574-.61.937-.085.094-.343.37-.78.828-.438.45-1.055 1.08-1.844 1.892zm0 0"/></symbol></defs><g><path fill="#fff" d="M0 0h300v300H0z"/><path d="M258.957 178.508l-11.684-26.926M247.273 151.582L264.75 128M247.273 151.582l-29.16-3.344M218.113 148.238l-17.476 23.586M210.816 146.484l-13.984 18.868M206.426 121.313l11.687 26.925M200.637 171.824l-29.164-3.344M171.473 168.48l-11.684-26.93M163.97 168.535l-9.35-21.54M153.996 192.063l17.477-23.583M159.79 141.55l17.476-23.58M159.79 141.55l-29.165-3.343M177.266 117.97l29.16 3.343M179.395 125.164l23.328 2.676M130.625 138.207L118.94 111.28" stroke-width="1.2" stroke="#000" stroke-miterlimit="10" fill="none"/><path d="M130.625 138.207l21.64-20.496-8.324-6.167zm0 0"/><path d="M113.148 161.793l17.477-23.586M118.94 111.28l-29.163-3.343M89.777 107.938L72.3 131.52M72.3 131.52l11.688 26.93M83.988 158.45l29.16 3.343" stroke-width="1.2" stroke="#000" stroke-miterlimit="10" fill="none"/><path d="M83.988 158.45m-.343 2.98l1.043-.063M83.3 164.41l2.083-.13m-2.422 3.11l3.122-.19m-3.465 3.17l4.164-.253m-4.503 3.235l5.203-.317m-5.546 3.297l6.246-.38m-6.586 3.36l7.285-.44m-7.63 3.42l8.328-.503m-8.672 3.483l9.367-.566m-9.687 3.352l10.344-.626" stroke="#000" stroke-miterlimit="10" fill="none"/><path d="M83.988 158.45l-28.547 6.83" stroke-width="1.2" stroke="#000" stroke-miterlimit="10" fill="none"/><path d="M113.148 161.793m.7 2.918l.957-.417m-.262 3.336l1.914-.833m-1.215 3.746l2.87-1.242m-2.17 4.16l3.824-1.66m-3.13 4.58l4.786-2.075m-4.086 4.992l5.738-2.488m-5.04 5.405l6.696-2.906m-6 5.823l7.653-3.32m-6.953 6.238l8.61-3.734m-7.958 6.465l9.504-4.124" stroke="#000" stroke-miterlimit="10" fill="none"/><path d="M124.836 188.72l29.16 3.343M55.44 165.28l-10.096-10.655" stroke-width="1.2" stroke="#000" stroke-miterlimit="10" fill="none"/><path d="M45.344 154.625L35.25 143.973" stroke-width="1.2" stroke="#00f" stroke-miterlimit="10" fill="none"/><path d="M10.25 134.473h25v19h-25zm0 0" fill="#fff"/><use xlink:href="#a" x="10.25" y="145.611" fill="#00f"/><use xlink:href="#b" x="19.273" y="150.494" fill="#00f"/><use xlink:href="#c" x="25.636" y="145.611" fill="#00f"/></g></svg>
